packages/ffe-icons/icons/filled/sm/detection_and_zone.svg

<svg xmlns="http://www.w3.org/2000/svg" height="20" viewBox="0 -960 960 960" width="20"><path d="M116.001-697.999v-81.692q0-27.008 18.65-45.658 18.65-18.65 45.658-18.65h81.692q11.069 0 18.534 7.405Q288-829.189 288-818.21q0 10.98-7.465 18.595Q273.07-792 262.001-792h-81.692q-4.616 0-8.463 3.846-3.846 3.847-3.846 8.463v81.692q0 11.069-7.405 18.534Q153.191-672 142.211-672q-10.979 0-18.594-7.465-7.616-7.465-7.616-18.534Zm64.308 581.998q-27.008 0-45.658-18.65-18.65-18.65-18.65-45.658v-81.692q0-11.069 7.405-18.534Q130.811-288 141.79-288q10.98 0 18.595 7.465Q168-273.07 168-262.001v81.692q0 4.616 3.846 8.463 3.847 3.846 8.463 3.846h81.692q11.069 0 18.534 7.405Q288-153.191 288-142.211q0 10.979-7.465 18.594-7.465 7.616-18.534 7.616h-81.692Zm599.382 0h-81.692q-11.069 0-18.534-7.405Q672-130.811 672-141.79q0-10.98 7.465-18.595Q686.93-168 697.999-168h81.692q4.616 0 8.463-3.846 3.846-3.847 3.846-8.463v-81.692q0-11.069 7.405-18.534Q806.809-288 817.789-288q10.979 0 18.594 7.465 7.616 7.465 7.616 18.534v81.692q0 27.008-18.65 45.658-18.65 18.65-45.658 18.65ZM792-697.999v-81.692q0-4.616-3.846-8.463-3.847-3.846-8.463-3.846h-81.692q-11.069 0-18.534-7.405Q672-806.809 672-817.789q0-10.979 7.465-18.594 7.465-7.616 18.534-7.616h81.692q27.008 0 45.658 18.65 18.65 18.65 18.65 45.658v81.692q0 11.069-7.405 18.534Q829.189-672 818.21-672q-10.98 0-18.595-7.465Q792-686.93 792-697.999ZM527.752-558.154q-32.444 0-55.021-22.825-22.577-22.824-22.577-55.269 0-32.444 22.825-55.021 22.824-22.577 55.269-22.577 32.444 0 55.021 22.825 22.577 22.824 22.577 55.269 0 32.444-22.825 55.021-22.824 22.577-55.269 22.577Zm-34.445 305.845H366.309l37.769-192.615-102.079 44.385V-324q0 11.069-7.404 18.534-7.405 7.465-18.384 7.465-10.98 0-18.595-7.465-7.615-7.465-7.615-18.534v-90.154q0-9.846 5.573-17.785 5.574-7.939 14.504-12.137l138.692-58q11.384-4.693 25.269-10.308 13.884-5.615 28.961-5.615 21.623 0 40.158 9.153 18.534 9.154 30.38 27.231l34 55q19.769 33.154 48.769 51.193 29 18.038 68.095 23.514 9.982 1.524 17.79 9.447 7.807 7.923 7.807 18.192t-8.307 17.384q-8.308 7.115-18.176 5.5-44.747-8-86.478-34.193Q555.307-361.77 524-411.31l-30.693 159.001Z"/></svg>

<svg xmlns="http://www.w3.org/2000/svg" height="20" viewBox="0 -960 960 960" width="20"><path d="M116-698v-81.69q0-27.01 18.65-45.66Q153.3-844 180.31-844H262q11.07 0 18.53 7.41 7.47 7.4 7.47 18.38 0 10.98-7.47 18.59Q273.07-792 262-792h-81.69q-4.62 0-8.46 3.85-3.85 3.84-3.85 8.46V-698q0 11.07-7.4 18.53-7.41 7.47-18.39 7.47t-18.59-7.47Q116-686.93 116-698Zm64.31 582q-27.01 0-45.66-18.65Q116-153.3 116-180.31V-262q0-11.07 7.41-18.53 7.4-7.47 18.38-7.47 10.98 0 18.59 7.47Q168-273.07 168-262v81.69q0 4.62 3.85 8.46 3.84 3.85 8.46 3.85H262q11.07 0 18.53 7.4 7.47 7.41 7.47 18.39t-7.47 18.59Q273.07-116 262-116h-81.69Zm599.38 0H698q-11.07 0-18.53-7.41-7.47-7.4-7.47-18.38 0-10.98 7.47-18.59Q686.93-168 698-168h81.69q4.62 0 8.46-3.85 3.85-3.84 3.85-8.46V-262q0-11.07 7.4-18.53 7.41-7.47 18.39-7.47t18.59 7.47Q844-273.07 844-262v81.69q0 27.01-18.65 45.66Q806.7-116 779.69-116ZM792-698v-81.69q0-4.62-3.85-8.46-3.84-3.85-8.46-3.85H698q-11.07 0-18.53-7.4-7.47-7.41-7.47-18.39t7.47-18.59Q686.93-844 698-844h81.69q27.01 0 45.66 18.65Q844-806.7 844-779.69V-698q0 11.07-7.41 18.53-7.4 7.47-18.38 7.47-10.98 0-18.59-7.47Q792-686.93 792-698ZM527.75-558.15q-32.44 0-55.02-22.83-22.58-22.82-22.58-55.27 0-32.44 22.83-55.02 22.82-22.58 55.27-22.58 32.44 0 55.02 22.83 22.58 22.82 22.58 55.27 0 32.44-22.83 55.02-22.82 22.58-55.27 22.58Zm-34.44 305.84h-127l37.77-192.61L302-400.54V-324q0 11.07-7.41 18.53-7.4 7.47-18.38 7.47-10.98 0-18.59-7.47Q250-312.93 250-324v-90.15q0-9.85 5.57-17.79 5.58-7.94 14.51-12.14l138.69-58q11.38-4.69 25.27-10.3Q447.92-518 463-518q21.62 0 40.16 9.15 18.53 9.16 30.38 27.24l34 55q19.77 33.15 48.77 51.19 29 18.04 68.09 23.51 9.98 1.53 17.79 9.45 7.81 7.92 7.81 18.19 0 10.27-8.31 17.38-8.31 7.12-18.17 5.5-44.75-8-86.48-34.19-41.73-26.19-73.04-75.73l-30.69 159Z"/></svg>
